symbols/web/format_textdirection_l_to_r/materialsymbolsoutlined/format_textdirection_l_to_r_wght200fill1_24px.svg

<svg xmlns="http://www.w3.org/2000/svg" height="24" width="24"><path d="M10.1 14.5V9.5H9.6Q8.15 9.5 7.125 8.475Q6.1 7.45 6.1 6Q6.1 4.55 7.125 3.525Q8.15 2.5 9.6 2.5H16.1V3.5H14.1V14.5H13.1V3.5H11.1V14.5ZM17.1 21.3 16.4 20.6 18.5 18.5H3.6V17.5H18.5L16.4 15.4L17.1 14.7L20.4 18ZM10.1 8.5V3.5H9.6Q8.575 3.5 7.838 4.237Q7.1 4.975 7.1 6Q7.1 7.025 7.838 7.762Q8.575 8.5 9.6 8.5ZM10.1 8.5H9.6Q8.55 8.5 7.825 7.762Q7.1 7.025 7.1 6Q7.1 4.975 7.825 4.237Q8.55 3.5 9.6 3.5H10.1Z"/></svg>

<svg xmlns="http://www.w3.org/2000/svg" height="24" width="24"><path d="M10.1 14.5v-5h-.5q-1.45 0-2.475-1.025Q6.1 7.45 6.1 6q0-1.45 1.025-2.475Q8.15 2.5 9.6 2.5h6.5v1h-2v11h-1v-11h-2v11Zm7 6.8-.7-.7 2.1-2.1H3.6v-1h14.9l-2.1-2.1.7-.7 3.3 3.3Z"/></svg>
